X:1
T:Adeste Fideles 
T:Rayan T. Germiniani Violão Solo 
%%score 1 2
L:1/8
M:4/4
K:C
V:1 treble-8 nm="Violão" snm="Viol."
V:2 tab stafflines=6 strings=E2,A2,D3,G3,B3,E4 nostems nm="Violão" snm="Viol."
V:1
 z4 z2 c2 | c4 G2 c2 | d4 A4 | e2 d2 e2 f2 | e4 d2 c2 | c4 B2 A2 | B2 c2 d2 e2 | B4 A3 G | G8 | %9
 g4 f2 e2 | f4 e4 | d2 e2 c2 d2 | B2 A2 G2 c2 | c2 B2 c2 d2 | c4 G2 e2 | e2 d2 e2 f2 | e4 d2 e2 | %17
 f2 e2 d2 c2 | B2 c2 d2 f2 | e4 d3 c | c8 |] %21
V:2
 x2 x2 x2 !2!C2 | !2!C4 !3!G,2 !2!C2 | !2!D4 !3!A,4 | !1!E2 !2!D2 !1!E2 !1!F2 | !1!E4 !2!D2 !2!C2 | %5
 !2!C4 !2!B,2 !3!A,2 | !2!B,2 !2!C2 !2!D2 !1!E2 | !2!B,4 !3!A,3 !3!G, | !3!G,8 | %9
 !1!G4 !1!F2 !1!E2 | !1!F4 !1!E4 | !2!D2 !1!E2 !2!C2 !2!D2 | !2!B,2 !3!A,2 !3!G,2 !2!C2 | %13
 !2!C2 !2!B,2 !2!C2 !2!D2 | !2!C4 !3!G,2 !1!E2 | !1!E2 !2!D2 !1!E2 !1!F2 | !1!E4 !2!D2 !1!E2 | %17
 !1!F2 !1!E2 !2!D2 !2!C2 | !2!B,2 !2!C2 !2!D2 !1!F2 | !1!E4 !2!D3 !2!C | !2!C8 |] %21

